X: 22207
T: La Ciapa Rusa
R: mazurka
M: 3/4
K: Eminor
|:EF GA Bc|B4 B2|cB AB ce|B4 B2|AG FG AB|
GF EF GE|1 F2 A2 G2|F6:|2 F2 G2 F2|E4 G A||
|:BG EB GE|BG EB GE|cG Ec GE|cG Ec GE|
BA GB AG|BA GB AG|1 F2 A2 G2|F4 G A:|2 F2 G2 F2|E6||

